;FLAVOR:Marlin
;TIME:13792
;Filament used: 10.0647m
;Layer height: 0.2
;MINX:54.821
;MINY:48.997
;MINZ:0.2
;MAXX:143.889
;MAXY:171.003
;MAXZ:9.8
;Generated with Cura_SteamEngine 4.7.1
M140 S60
M105
M190 S60
M104 S200
M105
M109 S200
M82 ;absolute extrusion mode
; Ender 3 Custom Start G-code
G92 E0 ; Reset Extruder
G28 ; Home all axes
G1 Z2.0 F3000 ; Move Z Axis up little to prevent scratching of Heat Bed
G1 X0.1 Y20 Z0.3 F5000.0 ; Move to start position
G1 X0.1 Y200.0 Z0.3 F1500.0 E15 ; Draw the first line
G1 X0.4 Y200.0 Z0.3 F5000.0 ; Move to side a little
G1 X0.4 Y20 Z0.3 F1500.0 E30 ; Draw the second line
G92 E0 ; Reset Extruder
G1 Z2.0 F3000 ; Move Z Axis up little to prevent scratching of Heat Bed
G1 X5 Y20 Z0.3 F5000.0 ; Move over to prevent blob squish
G92 E0
G92 E0
G1 F1500 E-6.5
;LAYER_COUNT:49
;LAYER:0
M107
G0 F6000 X58.028 Y52.368 Z0.2
;TYPE:SKIRT
G1 F1500 E0
G1 F1200 X58.717 Y51.731 E0.03121
G1 X59.458 Y51.156 E0.06241
G1 X60.244 Y50.645 E0.09359
G1 X60.753 Y50.363 E0.11294
G1 X60.974 Y50.248 E0.12123
G1 X61.824 Y49.851 E0.15243
G1 X62.704 Y49.528 E0.18361
G1 X63.609 Y49.281 E0.21481
G1 X64.532 Y49.112 E0.24602
G1 X65.663 Y49.013 E0.28378
G1 X65.776 Y49.009 E0.28754
G1 X66.079 Y49.002 E0.29762
G1 X66.336 Y49 E0.30617
G1 X67.606 Y49 E0.34841
G1 X67.64 Y48.998 E0.34954
G1 X68.7 Y49.001 E0.3848
G1 X70.291 Y49 E0.43771
G1 X70.342 Y48.997 E0.43941
G1 X71.354 Y49.001 E0.47307
G1 X72.22 Y49.001 E0.50188
G1 X72.926 Y49.011 E0.52536
G1 X73.231 Y49.02 E0.53551
G1 X73.867 Y49.047 E0.55668
G1 X75.614 Y49.146 E0.61488
G1 X78.134 Y49.216 E0.69873
G1 X80.658 Y49.216 E0.78268
G1 X83.167 Y49.144 E0.86616
G1 X85.49 Y49.02 E0.94353
G1 X85.776 Y49.009 E0.95305
G1 X86.079 Y49.002 E0.96313
G1 X86.336 Y49 E0.97168
G1 X87.606 Y49 E1.01392
G1 X87.64 Y48.998 E1.01506
G1 X88.7 Y49.001 E1.05031
G1 X90.291 Y49 E1.10323
G1 X90.342 Y48.997 E1.10493
G1 X91.354 Y49.001 E1.13859
G1 X92.22 Y49.001 E1.16739
G1 X92.926 Y49.011 E1.19087
G1 X93.231 Y49.02 E1.20102
G1 X93.867 Y49.047 E1.2222
G1 X95.614 Y49.146 E1.28039
G1 X98.134 Y49.216 E1.36424
G1 X100.658 Y49.216 E1.44819
G1 X103.167 Y49.144 E1.53167
G1 X105.49 Y49.02 E1.60905
G1 X105.776 Y49.009 E1.61857
G1 X106.079 Y49.002 E1.62865
G1 X106.336 Y49 E1.6372
G1 X107.606 Y49 E1.67944
G1 X107.64 Y48.998 E1.68057
G1 X108.7 Y49.001 E1.71583
G1 X110.291 Y49 E1.76874
G1 X110.342 Y48.997 E1.77044
G1 X111.354 Y49.001 E1.8041
G1 X112.22 Y49.001 E1.8329
G1 X112.926 Y49.011 E1.85639
G1 X113.231 Y49.02 E1.86654
G1 X113.867 Y49.047 E1.88771
G1 X115.614 Y49.146 E1.94591
G1 X118.134 Y49.216 E2.02976
G1 X120.658 Y49.216 E2.1137
G1 X123.167 Y49.144 E2.19719
G1 X125.49 Y49.02 E2.27456
G1 X125.776 Y49.009 E2.28408
G1 X126.079 Y49.002 E2.29416
G1 X126.336 Y49 E2.30271
G1 X127.606 Y49 E2.34495
G1 X127.64 Y48.998 E2.34608
G1 X128.7 Y49.001 E2.38134
G1 X130.291 Y49 E2.43426
G1 X130.342 Y48.997 E2.43596
G1 X131.354 Y49.001 E2.46961
G1 X132.22 Y49.001 E2.49842
G1 X132.923 Y49.011 E2.5218
G1 X133.86 Y49.064 E2.55302
G1 X134.788 Y49.197 E2.5842
G1 X135.702 Y49.409 E2.6154
G1 X136.594 Y49.697 E2.64658
G1 X137.459 Y50.061 E2.67779
G1 X138.289 Y50.497 E2.70898
G1 X139.08 Y51.002 E2.74019
G1 X139.824 Y51.572 E2.77136
G1 X140.545 Y52.232 E2.80387
G1 X140.656 Y52.343 E2.8091
G1 X141.29 Y53.034 E2.84029
G1 X141.864 Y53.776 E2.87149
G1 X142.371 Y54.565 E2.90268
G1 X142.81 Y55.393 E2.93385
G1 X143.177 Y56.257 E2.96507
G1 X143.469 Y57.148 E2.99626
G1 X143.683 Y58.061 E3.02745
G1 X143.82 Y58.989 E3.05865
G1 X143.871 Y59.72 E3.08302
G1 X143.876 Y59.857 E3.08758
G1 X143.882 Y60.112 E3.09606
G1 X143.888 Y60.635 E3.11346
G1 X143.888 Y94.942 E4.25452
G1 X143.889 Y159.141 E6.38978
G1 X143.878 Y160.028 E6.41929
G1 X143.825 Y160.964 E6.45047
G1 X143.693 Y161.893 E6.48168
G1 X143.482 Y162.807 E6.51288
G1 X143.194 Y163.699 E6.54405
G1 X142.831 Y164.564 E6.57525
G1 X142.396 Y165.395 E6.60645
G1 X141.892 Y166.186 E6.63765
G1 X141.322 Y166.93 E6.66882
G1 X140.69 Y167.624 E6.70004
G1 X140.002 Y168.261 E6.73122
G1 X139.262 Y168.837 E6.76241
G1 X138.285 Y169.459 E6.80093
G1 X138.083 Y169.573 E6.80865
G1 X137.248 Y169.998 E6.83981
G1 X136.379 Y170.351 E6.87101
G1 X135.483 Y170.629 E6.90221
G1 X134.567 Y170.829 E6.9334
G1 X133.637 Y170.951 E6.96459
G1 X133.059 Y170.986 E6.98385
G1 X132.915 Y170.991 E6.98864
G1 X132.623 Y170.998 E6.99836
G1 X132.308 Y171 E7.00884
G1 X131.069 Y171.002 E7.05005
G1 X130.009 Y170.999 E7.0853
G1 X128.418 Y171 E7.13822
G1 X128.367 Y171.003 E7.13992
G1 X127.355 Y170.999 E7.17358
G1 X126.49 Y170.999 E7.20235
G1 X125.784 Y170.989 E7.22583
G1 X125.479 Y170.98 E7.23598
G1 X124.843 Y170.953 E7.25715
G1 X123.096 Y170.854 E7.31535
G1 X120.576 Y170.784 E7.3992
G1 X118.052 Y170.784 E7.48315
G1 X115.543 Y170.856 E7.56663
G1 X113.237 Y170.979 E7.64344
G1 X112.915 Y170.991 E7.65416
G1 X112.623 Y170.998 E7.66387
G1 X112.379 Y171 E7.67199
G1 X111.103 Y171 E7.71443
G1 X111.069 Y171.002 E7.71556
G1 X110.009 Y170.999 E7.75081
G1 X108.418 Y171 E7.80373
G1 X108.367 Y171.003 E7.80543
G1 X107.355 Y170.999 E7.83909
G1 X106.49 Y170.999 E7.86786
G1 X105.784 Y170.989 E7.89134
G1 X105.479 Y170.98 E7.90149
G1 X104.843 Y170.953 E7.92267
G1 X103.096 Y170.854 E7.98086
G1 X100.576 Y170.784 E8.06471
G1 X98.052 Y170.784 E8.14866
G1 X95.543 Y170.856 E8.23214
G1 X93.237 Y170.979 E8.30895
G1 X92.915 Y170.991 E8.31967
G1 X92.623 Y170.998 E8.32938
G1 X92.379 Y171 E8.3375
G1 X91.103 Y171 E8.37994
G1 X91.069 Y171.002 E8.38107
G1 X90.009 Y170.999 E8.41633
G1 X88.418 Y171 E8.46924
G1 X88.367 Y171.003 E8.47094
G1 X87.355 Y170.999 E8.5046
G1 X86.49 Y170.999 E8.53337
G1 X85.784 Y170.989 E8.55686
G1 X85.479 Y170.98 E8.56701
G1 X84.843 Y170.953 E8.58818
G1 X83.096 Y170.854 E8.64638
G1 X80.576 Y170.784 E8.73023
G1 X78.052 Y170.784 E8.81417
G1 X75.543 Y170.856 E8.89766
G1 X73.237 Y170.979 E8.97446
G1 X72.915 Y170.991 E8.98518
G1 X72.623 Y170.998 E8.9949
G1 X72.379 Y171 E9.00301
G1 X71.103 Y171 E9.04545
G1 X71.069 Y171.002 E9.04658
G1 X70.009 Y170.999 E9.08184
G1 X68.418 Y171 E9.13476
G1 X68.367 Y171.003 E9.13646
G1 X67.355 Y170.999 E9.17012
G1 X66.489 Y170.999 E9.19892
G1 X65.787 Y170.989 E9.22227
G1 X64.851 Y170.936 E9.25345
G1 X63.923 Y170.803 E9.28463
G1 X63.009 Y170.591 E9.31584
G1 X62.116 Y170.303 E9.34705
G1 X61.252 Y169.939 E9.37823
G1 X60.421 Y169.503 E9.40944
G1 X59.631 Y168.998 E9.44063
G1 X58.887 Y168.428 E9.4718
G1 X58.166 Y167.768 E9.50431
G1 X58.054 Y167.656 E9.50958
G1 X57.42 Y166.965 E9.54077
G1 X56.846 Y166.223 E9.57197
G1 X56.339 Y165.434 E9.60317
G1 X55.9 Y164.606 E9.63434
G1 X55.533 Y163.742 E9.66556
G1 X55.241 Y162.851 E9.69674
G1 X55.027 Y161.938 E9.72793
G1 X54.89 Y161.01 E9.75913
G1 X54.838 Y160.249 E9.7845
G1 X54.833 Y160.101 E9.78943
G1 X54.828 Y159.852 E9.79771
G1 X54.822 Y159.278 E9.8168
G1 X54.822 Y125.058 E10.95497
G1 X54.821 Y60.804 E13.09206
G1 X54.822 Y60.643 E13.09742
G1 X54.832 Y59.96 E13.12014
G1 X54.886 Y59.024 E13.15132
G1 X55.019 Y58.095 E13.18253
G1 X55.231 Y57.182 E13.21371
G1 X55.52 Y56.289 E13.24493
G1 X55.884 Y55.425 E13.27611
G1 X56.32 Y54.595 E13.30729
G1 X56.825 Y53.805 E13.33848
G1 X57.396 Y53.06 E13.3697
G1 X58.028 Y52.368 E13.40087
G0 F6000 X58.42 Y52.542
G1 F1200 X59.105 Y51.928 E13.43146
G1 X59.842 Y51.375 E13.46211
G1 X60.938 Y50.718 E13.50461
G1 X61.159 Y50.603 E13.5129
G1 X61.993 Y50.214 E13.5435
G1 X62.858 Y49.899 E13.57412
G1 X63.747 Y49.66 E13.60474
G1 X64.654 Y49.499 E13.63538
G1 X65.677 Y49.413 E13.66952
G1 X66.083 Y49.402 E13.68303
G1 X66.34 Y49.4 E13.69158
G1 X67.595 Y49.4 E13.73332
G1 X67.639 Y49.398 E13.73479
G1 X68.699 Y49.401 E13.77004
G1 X70.274 Y49.4 E13.82243
G1 X70.34 Y49.397 E13.82463
G1 X71.353 Y49.401 E13.85832
G1 X72.214 Y49.401 E13.88696
G1 X72.92 Y49.411 E13.91044
G1 X73.214 Y49.419 E13.92022
G1 X73.691 Y49.439 E13.9361
G1 X75.579 Y49.545 E13.99899
G1 X78.123 Y49.616 E14.08364
G1 X80.634 Y49.616 E14.16716
G1 X83.2 Y49.542 E14.25254
G1 X85.511 Y49.42 E14.32951
G1 X85.79 Y49.409 E14.3388
G1 X86.083 Y49.402 E14.34854
G1 X86.34 Y49.4 E14.35709
G1 X87.595 Y49.4 E14.39883
G1 X87.639 Y49.398 E14.4003
G1 X88.699 Y49.401 E14.43555
G1 X90.274 Y49.4 E14.48794
G1 X90.34 Y49.397 E14.49014
G1 X91.353 Y49.401 E14.52383
G1 X92.214 Y49.401 E14.55247
G1 X92.92 Y49.411 E14.57595
G1 X93.214 Y49.419 E14.58573
G1 X93.691 Y49.439 E14.60161
G1 X95.579 Y49.545 E14.66451
G1 X98.123 Y49.616 E14.74915
G1 X100.634 Y49.616 E14.83267
G1 X103.2 Y49.542 E14.91805
G1 X105.511 Y49.42 E14.99502
G1 X105.79 Y49.409 E15.00431
G1 X106.083 Y49.402 E15.01406
G1 X106.34 Y49.4 E15.0226
G1 X107.595 Y49.4 E15.06435
G1 X107.639 Y49.398 E15.06581
G1 X108.699 Y49.401 E15.10107
G1 X110.274 Y49.4 E15.15345
G1 X110.34 Y49.397 E15.15565
G1 X111.353 Y49.401 E15.18934
G1 X112.214 Y49.401 E15.21798
G1 X112.92 Y49.411 E15.24146
G1 X113.214 Y49.419 E15.25124
G1 X113.691 Y49.439 E15.26712
G1 X115.579 Y49.545 E15.33002
G1 X118.123 Y49.616 E15.41466
G1 X120.634 Y49.616 E15.49818
G1 X123.2 Y49.542 E15.58356
G1 X125.511 Y49.42 E15.66053
G1 X125.79 Y49.409 E15.66982
G1 X126.083 Y49.402 E15.67957
G1 X126.34 Y49.4 E15.68812
G1 X127.595 Y49.4 E15.72986
G1 X127.639 Y49.398 E15.73132
G1 X128.699 Y49.401 E15.76658
G1 X130.274 Y49.4 E15.81896
G1 X130.34 Y49.397 E15.82116
G1 X131.353 Y49.401 E15.85485
G1 X132.215 Y49.401 E15.88352
G1 X132.918 Y49.411 E15.90691
G1 X133.837 Y49.464 E15.93752
G1 X134.748 Y49.597 E15.96814
G1 X135.644 Y49.808 E15.99876
G1 X136.518 Y50.096 E16.02937
G1 X137.365 Y50.459 E16.06002
G1 X138.176 Y50.894 E16.09063
G1 X138.947 Y51.398 E16.12126
G1 X139.671 Y51.966 E16.15187
G1 X140.262 Y52.515 E16.1787
G1 X140.373 Y52.626 E16.18392
G1 X140.995 Y53.304 E16.21452
G1 X141.556 Y54.034 E16.24514
G1 X142.052 Y54.81 E16.27578
G1 X142.478 Y55.626 E16.30639
G1 X142.832 Y56.476 E16.33702
G1 X143.11 Y57.354 E16.36765
G1 X143.312 Y58.252 E16.39826
G1 X143.435 Y59.165 E16.4289
G1 X143.471 Y59.734 E16.44787
G1 X143.476 Y59.871 E16.45243
G1 X143.482 Y60.117 E16.46061
G1 X143.488 Y60.635 E16.47784
G1 X143.488 Y94.942 E17.61889
G1 X143.489 Y159.141 E19.75416
G1 X143.478 Y160.023 E19.7835
G1 X143.426 Y160.942 E19.81412
G1 X143.294 Y161.853 E19.84473
G1 X143.083 Y162.749 E19.87535
G1 X142.795 Y163.624 E19.90599
G1 X142.433 Y164.47 E19.93659
G1 X141.999 Y165.282 E19.96721
G1 X141.496 Y166.053 E19.99783
G1 X140.927 Y166.777 E20.02846
G1 X140.298 Y167.45 E20.0591
G1 X139.613 Y168.065 E20.08972
G1 X138.878 Y168.618 E20.12031
G1 X138.089 Y169.11 E20.15124
G1 X137.887 Y169.224 E20.15895
G1 X137.066 Y169.642 E20.18959
G1 X136.212 Y169.986 E20.22021
G1 X135.332 Y170.255 E20.25082
G1 X134.431 Y170.447 E20.28146
G1 X133.518 Y170.56 E20.31206
G1 X133.045 Y170.587 E20.32782
G1 X132.901 Y170.592 E20.33261
G1 X132.62 Y170.598 E20.34196
G1 X132.307 Y170.6 E20.35237
G1 X131.07 Y170.602 E20.39351
G1 X130.01 Y170.599 E20.42877
G1 X128.435 Y170.6 E20.48115
G1 X128.369 Y170.603 E20.48335
G1 X127.356 Y170.599 E20.51704
G1 X126.496 Y170.599 E20.54565
G1 X125.79 Y170.589 E20.56913
G1 X125.496 Y170.581 E20.57891
G1 X125.019 Y170.561 E20.59479
G1 X123.131 Y170.455 E20.65768
G1 X120.587 Y170.384 E20.74233
G1 X118.076 Y170.384 E20.82585
G1 X115.51 Y170.458 E20.91123
G1 X113.217 Y170.579 E20.9876
G1 X112.901 Y170.592 E20.99812
G1 X112.62 Y170.598 E21.00747
G1 X112.376 Y170.6 E21.01558
G1 X111.114 Y170.6 E21.05756
G1 X111.07 Y170.602 E21.05902
G1 X110.01 Y170.599 E21.09428
G1 X108.435 Y170.6 E21.14666
G1 X108.369 Y170.603 E21.14886
G1 X107.356 Y170.599 E21.18255
G1 X106.496 Y170.599 E21.21116
G1 X105.79 Y170.589 E21.23464
G1 X105.496 Y170.581 E21.24442
G1 X105.019 Y170.561 E21.2603
G1 X103.131 Y170.455 E21.3232
G1 X100.587 Y170.384 E21.40784
G1 X98.076 Y170.384 E21.49136
G1 X95.51 Y170.458 E21.57674
G1 X93.217 Y170.579 E21.65311
G1 X92.901 Y170.592 E21.66363
G1 X92.62 Y170.598 E21.67298
G1 X92.376 Y170.6 E21.68109
G1 X91.114 Y170.6 E21.72307
G1 X91.07 Y170.602 E21.72453
G1 X90.01 Y170.599 E21.75979
G1 X88.435 Y170.6 E21.81217
G1 X88.369 Y170.603 E21.81437
G1 X87.356 Y170.599 E21.84806
G1 X86.496 Y170.599 E21.87667
G1 X85.79 Y170.589 E21.90015
G1 X85.496 Y170.581 E21.90993
G1 X85.019 Y170.561 E21.92581
G1 X83.131 Y170.455 E21.98871
G1 X80.587 Y170.384 E22.07335
G1 X78.076 Y170.384 E22.15687
G1 X75.51 Y170.458 E22.24225
G1 X73.217 Y170.579 E22.31862
G1 X72.901 Y170.592 E22.32914
G1 X72.62 Y170.598 E22.33849
G1 X72.376 Y170.6 E22.34661
G1 X71.114 Y170.6 E22.38858
G1 X71.07 Y170.602 E22.39005
G1 X70.01 Y170.599 E22.4253
G1 X68.435 Y170.6 E22.47769
G1 X68.369 Y170.603 E22.47988
G1 X67.356 Y170.599 E22.51358
G1 X66.495 Y170.599 E22.54221
G1 X65.793 Y170.589 E22.56556
G1 X64.874 Y170.536 E22.59618
G1 X63.963 Y170.403 E22.6268
G1 X63.067 Y170.192 E22.65742
G1 X62.192 Y169.904 E22.68806
G1 X61.346 Y169.541 E22.71868
G1 X60.535 Y169.106 E22.74928
G1 X59.764 Y168.602 E22.77992
G1 X59.04 Y168.034 E22.81053
G1 X58.449 Y167.485 E22.83736
G1 X58.337 Y167.373 E22.84263
G1 X57.715 Y166.695 E22.87323
G1 X57.154 Y165.965 E22.90385
G1 X56.658 Y165.189 E22.93448
G1 X56.232 Y164.373 E22.9651
G1 X55.878 Y163.523 E22.99572
G1 X55.6 Y162.645 E23.02635
G1 X55.398 Y161.747 E23.05697
G1 X55.275 Y160.834 E23.08761
G1 X55.238 Y160.236 E23.10754
G1 X55.233 Y160.088 E23.11246
G1 X55.228 Y159.847 E23.12048
G1 X55.222 Y159.278 E23.1394
G1 X55.222 Y125.058 E24.27757
G1 X55.221 Y60.804 E26.41466
G1 X55.222 Y60.649 E26.41982
G1 X55.232 Y59.966 E26.44254
G1 X55.286 Y59.047 E26.47316
G1 X55.419 Y58.136 E26.50378
G1 X55.63 Y57.24 E26.53439
G1 X55.919 Y56.365 E26.56504
G1 X56.282 Y55.519 E26.59566
G1 X56.717 Y54.708 E26.62627
G1 X57.221 Y53.938 E26.65688
G1 X57.79 Y53.214 E26.68751
G1 X58.42 Y52.542 E26.71814
G0 F6000 X58.811 Y52.721
G1 F1200 X59.493 Y52.129 E26.74818
G1 X60.225 Y51.6 E26.77822
G1 X61.123 Y51.073 E26.81285
G1 X61.344 Y50.958 E26.82114
G1 X62.162 Y50.577 E26.85115
G1 X63.012 Y50.27 E26.88121
G1 X63.885 Y50.039 E26.91124
G1 X64.775 Y49.886 E26.94128
G1 X65.691 Y49.812 E26.97184
G1 X65.804 Y49.808 E26.97561
G1 X66.086 Y49.802 E26.98499
G1 X66.343 Y49.8 E26.99354
G1 X67.575 Y49.8 E27.03451
G1 X67.638 Y49.798 E27.03661
G1 X68.699 Y49.801 E27.0719
G1 X70.242 Y49.8 E27.12322
G1 X70.339 Y49.797 E27.12645
G1 X71.352 Y49.801 E27.16014
G1 X72.208 Y49.801 E27.18861
G1 X72.914 Y49.811 E27.21209
G1 X73.197 Y49.819 E27.22151
G1 X73.822 Y49.846 E27.24232
G1 X75.581 Y49.945 E27.30091
G1 X78.112 Y50.016 E27.38513
G1 X80.646 Y50.016 E27.46941
G1 X83.233 Y49.942 E27.55549
G1 X85.531 Y49.819 E27.63203
G1 X85.804 Y49.808 E27.64112
G1 X86.086 Y49.802 E27.6505
G1 X86.343 Y49.8 E27.65905
G1 X87.575 Y49.8 E27.70002
G1 X87.638 Y49.798 E27.70212
G1 X88.699 Y49.801 E27.73741
G1 X90.242 Y49.8 E27.78873
G1 X90.339 Y49.797 E27.79196
G1 X91.352 Y49.801 E27.82565
G1 X92.208 Y49.801 E27.85412
G1 X92.914 Y49.811 E27.8776
G1 X93.197 Y49.819 E27.88702
G1 X93.822 Y49.846 E27.90783
G1 X95.581 Y49.945 E27.96642
G1 X98.112 Y50.016 E28.05064
G1 X100.646 Y50.016 E28.13492
G1 X103.233 Y49.942 E28.221
G1 X105.531 Y49.819 E28.29754
G1 X105.804 Y49.808 E28.30663
G1 X106.086 Y49.802 E28.31601
G1 X106.343 Y49.8 E28.32456
G1 X107.575 Y49.8 E28.36553
G1 X107.638 Y49.798 E28.36763
G1 X108.699 Y49.801 E28.40292
G1 X110.242 Y49.8 E28.45424
G1 X110.339 Y49.797 E28.45747
G1 X111.352 Y49.801 E28.49116
G1 X112.208 Y49.801 E28.51963
G1 X112.914 Y49.811 E28.54312
G1 X113.197 Y49.819 E28.55253
G1 X113.822 Y49.846 E28.57334
G1 X115.581 Y49.945 E28.63194
G1 X118.112 Y50.016 E28.71615
G1 X120.646 Y50.016 E28.80043
G1 X123.233 Y49.942 E28.88651
G1 X125.531 Y49.819 E28.96305
G1 X125.804 Y49.808 E28.97214
G1 X126.086 Y49.802 E28.98152
G1 X126.343 Y49.8 E28.99007
G1 X127.575 Y49.8 E29.03105
G1 X127.638 Y49.798 E29.03314
G1 X128.699 Y49.801 E29.06843
G1 X130.242 Y49.8 E29.11975
G1 X130.339 Y49.797 E29.12298
G1 X131.352 Y49.801 E29.15667
G1 X132.209 Y49.801 E29.18518
G1 X132.912 Y49.811 E29.20856
G1 X133.814 Y49.864 E29.23861
G1 X134.707 Y49.996 E29.26864
G1 X135.585 Y50.207 E29.29867
G1 X136.441 Y50.495 E29.32871
G1 X137.268 Y50.857 E29.35874
G1 X138.06 Y51.291 E29.38877
G1 X138.811 Y51.793 E29.41882
G1 X139.514 Y52.36 E29.44886
G1 X139.979 Y52.798 E29.4701
G1 X140.09 Y52.909 E29.47532
G1 X140.7 Y53.575 E29.50536
G1 X141.249 Y54.292 E29.5354
